build/assets/images/svg/icons/product/scale.svg

<svg width="24" height="24" viewBox="0 0 24 24" fill="none" xmlns="http://www.w3.org/2000/svg">
<path d="M21.8015 17.5245C21.7995 17.3696 21.6741 17.2444 21.5185 17.2444H20.7689L18.1725 9.45601L19.7913 8.24189C19.9955 8.08875 20.1024 7.85376 20.1007 7.61679C20.0996 7.45705 20.0492 7.29643 19.946 7.15891C19.7913 6.95252 19.5537 6.84559 19.3143 6.84955C19.1567 6.85197 18.9983 6.90258 18.863 7.00423L17.6724 7.89711C16.9259 7.38752 15.3993 6.46582 13.4481 6.11487C13.0914 4.92188 11.9013 5.00109 11.9013 5.00109C11.9013 5.00109 10.7112 4.92188 10.3543 6.11509C8.40305 6.46604 6.87649 7.38774 6.12994 7.89733L4.93936 7.00445C4.79018 6.89267 4.61394 6.84295 4.441 6.85043C4.21833 6.86055 4.00072 6.96638 3.85638 7.15913C3.74439 7.30853 3.69444 7.48543 3.70258 7.65881C3.71292 7.88148 3.81854 8.09799 4.01106 8.24211L5.63025 9.45491L3.03369 17.2444H2.28362C2.12806 17.2444 2.00286 17.3696 2.00088 17.5245H2C2 17.5251 2.00022 17.526 2.00022 17.5269C2.00022 17.5273 2 17.5278 2 17.5282H2.00044C2.00396 18.7648 3.8357 20 6.12554 20C8.41758 20 10.2511 18.7623 10.2511 17.5247H10.2478C10.2458 17.3698 10.1204 17.2446 9.96504 17.2446H9.21738L6.6206 9.45513C6.64921 9.43114 8.21317 8.13254 10.4198 7.67752C10.8397 8.7407 11.9013 8.66259 11.9013 8.66259C11.9013 8.66259 12.9629 8.7407 13.3827 7.67774C15.5958 8.13408 17.1635 9.43973 17.182 9.45513L14.5852 17.2444H13.8373C13.6818 17.2444 13.5566 17.3696 13.5544 17.5245H13.5515C13.5515 18.7621 15.385 19.9998 17.677 19.9998C19.9691 19.9998 21.8026 18.7621 21.8026 17.5245H21.8015ZM8.34805 17.2444H3.90303L6.12554 10.5779L8.34805 17.2444ZM17.677 10.5779L19.8995 17.2444H15.4545L17.677 10.5779Z" fill="#70798E"/>
</svg>

<svg width="24" height="24" fill="none" xmlns="http://www.w3.org/2000/svg"><path d="M21.802 17.524a.283.283 0 00-.284-.28h-.75l-2.596-7.788 1.62-1.214a.773.773 0 10-.929-1.238l-1.19.893c-.747-.51-2.274-1.431-4.225-1.782C13.091 4.922 11.901 5 11.901 5s-1.19-.08-1.547 1.114c-1.95.351-3.478 1.273-4.224 1.782l-1.19-.893a.772.772 0 00-1.237.655.77.77 0 00.308.583l1.62 1.213-2.597 7.79h-.75a.283.283 0 00-.283.28H2v.003C2.004 18.765 3.836 20 6.126 20c2.292 0 4.125-1.238 4.125-2.475h-.003a.283.283 0 00-.283-.28h-.748l-2.596-7.79c.028-.024 1.592-1.322 3.799-1.777.42 1.063 1.481.985 1.481.985s1.062.078 1.482-.985c2.213.456 3.78 1.762 3.799 1.777l-2.597 7.79h-.748a.283.283 0 00-.283.28h-.002c0 1.237 1.833 2.475 4.125 2.475s4.126-1.238 4.126-2.476H21.8zm-13.454-.28H3.903l2.223-6.666 2.222 6.666zm9.329-6.666l2.223 6.666h-4.445l2.222-6.666z" fill="#70798E"/></svg>
